X:1072
L:1/8
Q:1/4=120
M:4/4
K:Eb
 GA |"Eb" Bc BA G2 GF | E2 F2 E2 EE |"Bb" DD EE"Bb7" FF ED |"Eb" EE FF GG"Bb7" GA | 
"Eb" Be dc B2 EF | G2 A2 G2 GA | Bc BA"Eb/Bb" G2"Bb7" GF |"Eb" E4 z2 || GG |"Bb7" A2 z2 z2 GA | 
"Eb" B2 z2 z2 GB | e2-"Eb7" e2-"Ab" e2"Fm" BA |"Eb/Bb" GB"Bb7" FB"Eb" E2 GG |"Bb7" A2 z2 z2 GA | 
"Eb" B2 z2 z2 GB | e2-"Eb7" e2-"Ab" e2"Fm" BA |"Eb/Bb" GG"Bb7" GF"Eb" !fermata!E2 |]

